X:1
T:Ace and Deuce of Pipering
Z: id:dc-setdance-1
M:C|
L:1/8
K:G Major
dc|B2cA B2cA|BdcA B2AG|d2e^c d2e^c|dfe^c d=cBA|!
e2fd edcB|Adde dcBA|B2cA B2AG|FGAB cBcA|!
G2ge fdcA|FGAB cAFG|AGGF G2FG|AGGF G2:|!
GF|G2=f2 e2f2|G2=fg fdcA|G2g2 f2g2|d2ga gedc|!
A2=f2 e2fe|d^cde fefg|agfa gfde|fdcA BGAF|!
G2ge fdcA|FGAB cAFG|AGGF G2FG|AGGF G2:|!

